dist/img/about/about_icon_8.svg

<svg width="50" height="50" viewBox="0 0 50 50" fill="none" xmlns="http://www.w3.org/2000/svg">
<path d="M3.32129 48.2207L4.1908 39.2876C4.46811 36.4649 6.53614 34.1693 9.27159 33.6469C13.3513 32.8705 18.6577 31.96 18.6577 30.6181L18.7505 27.0833M9.4267 48.2207L10.6111 33.3929M16.1008 41.6599V32.1708M47.488 48.2207L46.6184 39.2876C46.3411 36.4649 44.2731 34.1693 41.5377 33.6469C37.458 32.8705 32.1516 31.96 32.1516 30.6181L32.0838 27.0833M41.3826 48.2207L40.1981 33.3929M34.7084 32.1708V41.6599M40.7903 41.6599H25.407H10.0236M17.2194 31.8497C18.4086 35.1517 21.708 37.385 25.4023 37.385C29.0965 37.385 32.4101 35.1421 33.5898 31.8354" stroke="#1C1C1C" stroke-width="1.5" stroke-linecap="round" stroke-linejoin="round"/>
<path d="M35.8206 17.3875V19.0226C35.8206 24.5631 31.1572 29.0541 25.404 29.0541C19.6507 29.0541 14.9873 24.5631 14.9873 19.0226V17.3875" stroke="#969696" stroke-width="1.5" stroke-linecap="round" stroke-linejoin="round"/>
<path d="M35.8206 13.7787C35.8206 13.7787 30.4977 14.0541 25.2216 14.0541C19.9454 14.0541 14.9873 13.7787 14.9873 13.7787M35.8206 13.7787V10.1534C35.8206 5.86613 32.1629 2.38745 27.6445 2.38745H23.1635C18.6497 2.38745 14.9873 5.86168 14.9873 10.1534V13.7787M35.8206 13.7787C35.8206 13.7787 32.8224 9.63802 25.404 9.63802C17.9855 9.63802 14.9873 13.7787 14.9873 13.7787" stroke="#1C1C1C" stroke-width="1.5" stroke-linecap="round" stroke-linejoin="round"/>
</svg>

<svg width="50" height="50" viewBox="0 0 50 50" fill="none" xmlns="http://www.w3.org/2000/svg"><path d="M3.321 48.22l.87-8.932c.277-2.823 2.345-5.119 5.08-5.641 4.08-.776 9.387-1.687 9.387-3.029l.092-3.535M9.427 48.221l1.184-14.828m5.49 8.267v-9.49m31.387 16.05l-.87-8.932c-.277-2.823-2.345-5.119-5.08-5.641-4.08-.776-9.386-1.687-9.386-3.029l-.068-3.535m9.299 21.138l-1.185-14.828m-5.49-1.222v9.489m6.082 0H10.024m7.195-9.81c1.19 3.302 4.489 5.535 8.183 5.535s7.008-2.243 8.188-5.55" stroke="#1C1C1C" stroke-width="1.5" stroke-linecap="round" stroke-linejoin="round"/><path d="M35.82 17.387v1.636c0 5.54-4.663 10.031-10.416 10.031s-10.417-4.49-10.417-10.031v-1.636" stroke="#969696" stroke-width="1.5" stroke-linecap="round" stroke-linejoin="round"/><path d="M35.82 13.779s-5.322.275-10.598.275c-5.277 0-10.235-.275-10.235-.275m20.834 0v-3.626c0-4.287-3.658-7.766-8.176-7.766h-4.482c-4.513 0-8.176 3.475-8.176 7.766v3.626m20.834 0s-2.999-4.141-10.417-4.141c-7.419 0-10.417 4.14-10.417 4.14" stroke="#1C1C1C" stroke-width="1.5" stroke-linecap="round" stroke-linejoin="round"/></svg>87V10.1534C35.8206 5.86613 32.1629 2.38745 27.6445 2.38745H23.1635C18.6497 2.38745 14.9873 5.86168 14.9873 10.1534V13.7787M35.8206 13.7787C35.8206 13.7787 32.8224 9.63802 25.404 9.63802C17.9855 9.63802 14.9873 13.7787 14.9873 13.7787" stroke="#1C1C1C" stroke-width="1.5" stroke-linecap="round" stroke-linejoin="round"/>
</svg>
